build/bank/PochtaBank.svg

<svg xmlns="http://www.w3.org/2000/svg" fill="none" viewBox="0 0 40 40" focusable="false"><path d="M0 0H40V40H0z"/><path fill="#CC013D" d="M1 12.4C1 10.1598 1 9.03969 1.43597 8.18404C1.81947 7.43139 2.43139 6.81947 3.18404 6.43597C4.03969 6 5.15979 6 7.4 6L32.6 6C34.8402 6 35.9603 6 36.816 6.43597C37.5686 6.81947 38.1805 7.43139 38.564 8.18404C39 9.03969 39 10.1598 39 12.4L39 27.6C39 29.8402 39 30.9603 38.564 31.816C38.1805 32.5686 37.5686 33.1805 36.816 33.564C35.9603 34 34.8402 34 32.6 34L7.4 34C5.15979 34 4.03969 34 3.18404 33.564C2.43139 33.1805 1.81947 32.5686 1.43597 31.816C1 30.9603 1 29.8402 1 27.6L1 12.4Z"/><path fill="#FFF" d="M27.9076 19.5126L27.7369 17.3251L26.7097 17.3251C26.6818 18.0514 26.6537 18.7785 26.6239 19.5126L25.7839 19.5126L25.9441 14.953L26.4718 14.953C26.7177 14.953 26.9618 14.9513 27.2068 14.953C27.8979 14.9574 28.3398 15.324 28.4369 16.01C28.5139 16.5578 28.5594 17.1107 28.6138 17.6602C28.6707 18.2413 28.7205 18.8205 28.7738 19.4015C28.7782 19.4348 28.7738 19.4671 28.7738 19.5126L27.9076 19.5126ZM26.7552 16.5219L27.6617 16.5219C27.6731 15.8814 27.3582 15.6119 26.7552 15.7519L26.7552 16.5219ZM15.9148 21.204C16.4137 21.204 16.8966 21.1664 17.3708 21.2136C17.9755 21.2731 18.3088 21.6188 18.4016 22.2251C18.4734 22.695 18.5032 23.1701 18.5503 23.6426C18.6187 24.3216 18.6833 24.998 18.7489 25.6761L18.2712 25.7636C17.8783 25.7636 17.8766 25.7636 17.8451 25.3707C17.8014 24.8099 17.7611 24.2464 17.7183 23.6846C17.7157 23.647 17.7059 23.6094 17.7007 23.5639L16.6814 23.5639C16.6682 23.8876 16.6516 24.2087 16.6403 24.5316C16.6262 24.8947 16.6139 25.2579 16.6088 25.6184C16.6062 25.7339 16.5649 25.7697 16.4513 25.7654C16.2273 25.7575 16.0015 25.7636 15.7556 25.7636L15.9148 21.204ZM17.601 22.7764C17.6106 22.1166 17.4084 21.8961 16.7198 21.9994L16.7198 22.7764L17.601 22.7764ZM22.4363 25.7575L21.5831 25.7575L21.5831 23.4449L20.4667 23.4449L20.4667 25.7514L19.6161 25.7514L19.6161 21.1961C19.8777 21.1961 20.1315 21.1917 20.3834 21.2022C20.4106 21.204 20.4587 21.2793 20.4587 21.3213C20.4648 21.6975 20.4623 22.0764 20.4623 22.4535L20.4623 22.6285L21.5769 22.6285L21.5769 21.9058C21.5769 21.7098 21.5813 21.5138 21.5752 21.3169C21.5708 21.2206 21.6067 21.1883 21.7021 21.1918C21.9025 21.1979 22.1046 21.1979 22.3049 21.1918C22.4117 21.1883 22.438 21.2302 22.4363 21.3291C22.4319 21.7019 22.4336 22.0746 22.4336 22.4474L22.4336 25.5667C22.4363 25.6262 22.4363 25.684 22.4363 25.7575ZM14.5428 21.1961L14.5428 21.9897L14.1553 21.9897C13.8314 21.9897 13.5087 21.9915 13.184 21.9871C13.0903 21.9854 13.0502 22.0116 13.0544 22.1122C13.0607 22.303 13.0563 22.4929 13.0563 22.674C13.324 22.6897 13.5759 22.6819 13.8202 22.723C14.4563 22.8324 14.8693 23.2917 14.9314 23.9349C14.9646 24.2796 14.9348 24.6191 14.7939 24.942C14.5892 25.4145 14.2323 25.7102 13.7247 25.747C13.2234 25.7855 12.7177 25.7557 12.1996 25.7557C12.1979 25.7032 12.1918 25.656 12.1918 25.6105C12.1918 24.193 12.1935 22.7764 12.1899 21.358C12.1899 21.2338 12.2162 21.19 12.3501 21.19C13.0719 21.2005 13.7992 21.1961 14.5428 21.1961ZM13.0773 25.0137C13.4403 25.0575 13.7772 25.0636 13.9889 24.7162C14.1639 24.4327 14.1324 23.8692 13.9399 23.6374C13.7852 23.451 13.3748 23.3661 13.0754 23.4624C13.0773 23.9725 13.0773 24.4861 13.0773 25.0137ZM14.9218 14.9626L14.9218 19.5205C14.6592 19.5205 14.4054 19.5222 14.1517 19.5161C14.1377 19.482 14.073 19.3595 14.073 19.3201L14.073 15.737L13.0614 15.737L13.0614 19.51L12.2084 19.51L12.2084 14.9609C13.1105 14.9626 14.0117 14.9626 14.9218 14.9626ZM23.5248 25.7557L23.5248 21.2075L24.3691 21.2075L24.3691 22.6775C24.9125 22.8 25.2144 22.5935 25.2861 22.0597C25.3158 21.8375 25.3273 21.6118 25.3491 21.3878L25.3649 21.2232L26.2057 21.2232C26.1708 21.5006 26.1322 21.7701 26.099 22.0405C26.0492 22.4272 25.9344 22.7842 25.6527 23.0712C25.6265 23.0992 25.637 23.1806 25.6544 23.2288C25.9485 24.0171 26.2477 24.8029 26.5453 25.5904L26.6064 25.7627C26.3011 25.7627 26.0132 25.7662 25.7279 25.7566C25.6964 25.7566 25.6544 25.6866 25.6388 25.6429C25.3928 24.963 25.147 24.2814 24.9089 23.5971C24.8713 23.4895 24.8197 23.4501 24.7086 23.4624C24.6072 23.472 24.5048 23.4641 24.3796 23.4641L24.3796 25.7522C24.0839 25.7549 23.8126 25.7557 23.5248 25.7557ZM21.9008 19.5223C21.6365 19.5223 21.3888 19.5205 21.1394 19.5223C21.0239 19.5223 21.052 19.4391 21.052 19.3779C21.0493 18.7505 21.052 18.1222 21.052 17.4957L21.052 17.3138C20.8455 17.3138 20.6512 17.3164 20.4569 17.3138C20.0658 17.3085 19.7184 17.1825 19.4752 16.8675C19.3719 16.7328 19.2766 16.5569 19.267 16.3941C19.2389 15.9216 19.2565 15.4456 19.2565 14.9618L20.1113 14.9618L20.1113 16.1413C20.1113 16.3513 20.2085 16.4843 20.4106 16.5096C20.6136 16.5359 20.8192 16.5359 21.0432 16.5473L21.0432 14.967L21.9008 14.967L21.9008 19.5223ZM23.4967 15.73L22.8247 15.73L22.8247 14.9653L25.0516 14.9653L25.0516 15.7221L24.3734 15.7221L24.3734 19.5196C24.0918 19.5196 23.8302 19.5222 23.5685 19.5161C23.5562 19.475 23.4967 19.3551 23.4967 19.3114L23.4967 15.73Z"/><path fill="#FFF" fill-rule="evenodd" d="M17.1565 19.65C18.0022 19.65 18.6877 18.5531 18.6877 17.2C18.6877 15.8469 18.0022 14.75 17.1565 14.75C16.3108 14.75 15.6252 15.8469 15.6252 17.2C15.6252 18.5531 16.3108 19.65 17.1565 19.65ZM17.1565 18.775C17.5673 18.775 17.9003 18.0698 17.9003 17.2C17.9003 16.3302 17.5673 15.625 17.1565 15.625C16.7457 15.625 16.4127 16.3302 16.4127 17.2C16.4127 18.0698 16.7457 18.775 17.1565 18.775Z"/><path fill="#FFF" fill-rule="evenodd" d="M17.1565 19.65C18.0022 19.65 18.6877 18.5531 18.6877 17.2C18.6877 15.8469 18.0022 14.75 17.1565 14.75C16.3108 14.75 15.6252 15.8469 15.6252 17.2C15.6252 18.5531 16.3108 19.65 17.1565 19.65ZM17.1565 18.775C17.5673 18.775 17.9003 18.0698 17.9003 17.2C17.9003 16.3302 17.5673 15.625 17.1565 15.625C16.7457 15.625 16.4127 16.3302 16.4127 17.2C16.4127 18.0698 16.7457 18.775 17.1565 18.775Z"/><path fill="#FFF" d="M26.7552 16.5219L26.7552 15.7519C27.3563 15.6093 27.6714 15.8788 27.6617 16.5219L26.7552 16.5219ZM17.601 22.7764L16.7198 22.7764L16.7198 21.9994C17.4067 21.8961 17.6106 22.1166 17.601 22.7764ZM13.0773 25.0137L13.0754 23.4624C13.3746 23.3652 13.7833 23.4501 13.9399 23.6374C14.1324 23.8666 14.1611 24.4309 13.9889 24.7162C13.7744 25.0609 13.4421 25.0575 13.0773 25.0137Z"/><path fill="#CC013D" d="M26.7552 16.5219L26.7552 15.7519C27.3563 15.6093 27.6714 15.8788 27.6617 16.5219L26.7552 16.5219ZM17.601 22.7764L16.7198 22.7764L16.7198 21.9994C17.4067 21.8961 17.6106 22.1166 17.601 22.7764ZM13.0773 25.0137L13.0754 23.4624C13.3746 23.3652 13.7833 23.4501 13.9399 23.6374C14.1324 23.8666 14.1611 24.4309 13.9889 24.7162C13.7744 25.0609 13.4421 25.0575 13.0773 25.0137Z"/></svg>

<svg xmlns="http://www.w3.org/2000/svg" fill="none" viewBox="0 0 40 40" focusable="false"><path fill="none" d="M0 0h40v40H0z"/><path fill="#CC013D" d="M1 12.4c0-2.25 0-3.37.43-4.22a4 4 0 0 1 1.75-1.75C4.03 6 5.15 6 7.4 6h25.19c2.25 0 3.37 0 4.22.43a4 4 0 0 1 1.75 1.75c.44.85.44 1.97.44 4.22v15.2c0 2.24 0 3.36-.44 4.21a4 4 0 0 1-1.75 1.75c-.85.44-1.97.44-4.22.44H7.4c-2.25 0-3.37 0-4.22-.44a4 4 0 0 1-1.75-1.75C1 30.96 1 29.84 1 27.6z"/><path fill="#FFF" d="m27.9 19.51-.17-2.19H26.7c-.02.73-.05 1.45-.08 2.19h-.84l.16-4.56h1.26c.69 0 1.13.37 1.23 1.06.08.54.12 1.1.18 1.65.06.58.11 1.16.16 1.74v.11zm-1.15-2.99h.91c.01-.64-.31-.91-.91-.77zM15.91 21.2c.5 0 .98-.04 1.46.01.6.06.93.4 1.03 1.01.07.47.1.95.15 1.42.06.68.13 1.35.19 2.03l-.47.09c-.4 0-.4 0-.43-.39-.04-.57-.08-1.13-.13-1.69 0-.04-.01-.08-.01-.12h-1.02c-.02.32-.03.64-.04.97-.02.36-.03.72-.04 1.08 0 .12-.04.15-.15.15-.23-.01-.45 0-.7 0zm1.69 1.57c.01-.66-.2-.88-.89-.78v.78zm4.83 2.98h-.85v-2.31h-1.12v2.31h-.85v-4.56c.26 0 .52 0 .77.01.03 0 .07.07.07.12.01.37.01.75.01 1.13v.17h1.11v-.72c0-.2.01-.39 0-.59 0-.09.03-.13.13-.12h.6c.11-.01.13.04.13.13v4.43m-7.89-4.56v.79h-.39c-.32 0-.65.01-.97 0-.09 0-.13.03-.13.13.01.19 0 .38 0 .56.27.01.52.01.77.05.63.11 1.04.57 1.11 1.21.03.34 0 .68-.14 1.01-.21.47-.56.77-1.07.8-.5.04-1.01.01-1.53.01v-.14c0-1.42 0-2.84-.01-4.26 0-.12.03-.16.17-.16.72.01 1.44 0 2.19 0m-1.47 3.82c.37.04.7.05.91-.3.18-.28.15-.85-.05-1.08-.15-.18-.56-.27-.86-.17zm1.85-10.05v4.56c-.27 0-.52 0-.77-.01a.8.8 0 0 1-.08-.19v-3.59h-1.01v3.78h-.86v-4.55zm8.6 10.79V21.2h.84v1.47c.55.13.85-.08.92-.62.03-.22.04-.44.06-.67l.02-.16h.84c-.03.28-.07.55-.11.82-.05.38-.16.74-.44 1.03-.03.02-.02.11 0 .15.29.79.59 1.58.89 2.37l.06.17c-.3 0-.59 0-.88-.01-.03 0-.07-.07-.09-.11-.24-.68-.49-1.36-.73-2.05-.03-.11-.09-.14-.2-.13-.1.01-.2 0-.33 0v2.29zm-1.62-6.23h-.77c-.11 0-.08-.09-.08-.15-.01-.62 0-1.25 0-1.88v-.18h-.6c-.39-.01-.74-.13-.98-.45-.1-.13-.2-.31-.21-.47-.03-.47-.01-.95-.01-1.43h.86v1.18c0 .21.09.34.3.36.2.03.4.03.63.04v-1.58h.86zm1.59-3.79h-.67v-.77h2.23v.76h-.68v3.79c-.28 0-.54.01-.81 0-.01-.04-.07-.16-.07-.2z"/><path fill="#FFF" fill-rule="evenodd" d="M17.15 19.65c.85 0 1.53-1.1 1.53-2.45 0-1.36-.68-2.45-1.53-2.45-.84 0-1.53 1.09-1.53 2.45 0 1.35.69 2.45 1.53 2.45m0-.88c.41 0 .75-.71.75-1.57 0-.87-.34-1.58-.75-1.58s-.74.71-.74 1.58c0 .86.33 1.57.74 1.57"/><path fill="#CC013D" d="M26.75 16.52v-.77c.6-.15.92.12.91.77zm-9.15 6.25h-.89v-.78c.69-.1.9.12.89.78m-4.53 2.24v-1.55c.3-.1.71-.01.86.17.2.23.23.8.05 1.08-.21.35-.54.34-.91.3"/></svg>
